public/images/coal.svg

<?xml version="1.0" encoding="utf-8"?>
<svg id="Capa_1" enable-background="new 0 0 512 512" height="512" viewBox="0 0 512 512" width="512" xmlns="http://www.w3.org/2000/svg"><g><path d="m299.614 451.817h-180.24v60.183h.684 179.556z"/><path d="m299.614 421.817v-93.152h-209.664v-42.641c0-8.271 6.729-15 15-15h14.423v27.396h180.24v-84.396h-180.24v27h-14.423c-24.813 0-45 20.187-45 45v42.641h-14.423c-24.813 0-45.527 20.431-45.527 45.244v138.091h30.527v-138.091c0-8.271 6.729-15 15-15h14.423v153.091h30v-153.091h29.423v62.908z"/><path d="m127.84 184.024h163.307l-66.081-69.91v-84.114h182.133v83.17l-66.973 70.854h163.307l-66.334-70.179v-113.845h-242.133v112.902z"/><path d="m331.759 451.817h180.241v60.183h-180.241z"/><path d="m331.759 328.665h180.241v93.152h-180.241z"/><path d="m331.759 214.024h180.241v84.396h-180.241z"/></g></svg>

<?xml version="1.0" encoding="utf-8"?>
<!-- Generator: Adobe Illustrator 24.3.0, SVG Export Plug-In . SVG Version: 6.00 Build 0)  -->
<svg version="1.1" id="Capa_1" xmlns="http://www.w3.org/2000/svg" xmlns:xlink="http://www.w3.org/1999/xlink" x="0px" y="0px"
	 viewBox="0 0 512 512" style="enable-background:new 0 0 512 512;" xml:space="preserve">
<g>
	<path d="M299.6,451.8H119.4V512h0.7h179.6V451.8z"/>
	<path d="M299.6,421.8v-93.2H90V286c0-8.3,6.7-15,15-15h14.4v27.4h180.2V214H119.4v27H105c-24.8,0-45,20.2-45,45v42.6H45.5
		C20.7,328.7,0,349.1,0,373.9V512h30.5V373.9c0-8.3,6.7-15,15-15H60V512h30V358.9h29.4v62.9L299.6,421.8z"/>
	<path d="M127.8,184h163.3l-66.1-69.9V30h182.1v83.2l-67,70.9h163.3l-66.3-70.2V0H195.1v112.9L127.8,184z"/>
	<path d="M331.8,451.8H512V512H331.8V451.8z"/>
	<path d="M331.8,328.7H512v93.2H331.8V328.7z"/>
	<path d="M331.8,214H512v84.4H331.8V214z"/>
</g>
</svg>
